docs/img/icon-telegam.svg

<svg width="16" height="16" viewBox="0 0 16 16" fill="none" xmlns="http://www.w3.org/2000/svg">
<path d="M16 8C16 10.1217 15.1571 12.1566 13.6569 13.6569C12.1566 15.1571 10.1217 16 8 16C5.87827 16 3.84344 15.1571 2.34315 13.6569C0.842855 12.1566 0 10.1217 0 8C0 5.87827 0.842855 3.84344 2.34315 2.34315C3.84344 0.842855 5.87827 0 8 0C10.1217 0 12.1566 0.842855 13.6569 2.34315C15.1571 3.84344 16 5.87827 16 8V8ZM8.287 5.906C7.509 6.23 5.953 6.9 3.621 7.916C3.243 8.066 3.044 8.214 3.026 8.358C2.996 8.601 3.301 8.697 3.716 8.828L3.891 8.883C4.299 9.016 4.849 9.171 5.134 9.177C5.394 9.183 5.683 9.077 6.002 8.857C8.181 7.386 9.306 6.643 9.376 6.627C9.426 6.615 9.496 6.601 9.542 6.643C9.589 6.684 9.584 6.763 9.579 6.784C9.549 6.913 8.352 8.025 7.733 8.601C7.54 8.781 7.403 8.908 7.375 8.937C7.31334 9.00001 7.25067 9.06202 7.187 9.123C6.807 9.489 6.523 9.763 7.202 10.211C7.529 10.427 7.791 10.604 8.052 10.782C8.336 10.976 8.62 11.169 8.988 11.411C9.081 11.471 9.171 11.536 9.258 11.598C9.589 11.834 9.888 12.046 10.255 12.012C10.469 11.992 10.69 11.792 10.802 11.192C11.067 9.775 11.588 6.706 11.708 5.441C11.7153 5.33584 11.711 5.2302 11.695 5.126C11.6856 5.04192 11.6449 4.96446 11.581 4.909C11.49 4.84619 11.3815 4.81365 11.271 4.816C10.971 4.821 10.508 4.982 8.287 5.906V5.906Z" fill="black"/>
</svg>

<svg width="16" height="16" fill="none" xmlns="http://www.w3.org/2000/svg"><path d="M16 8A8 8 0 11-.001 8 8 8 0 0116 8zM8.287 5.906c-.778.324-2.334.994-4.666 2.01-.378.15-.577.298-.595.442-.03.243.275.339.69.47l.175.055c.408.133.958.288 1.243.294.26.006.549-.1.868-.32 2.179-1.471 3.304-2.214 3.374-2.23.05-.012.12-.026.166.016.047.041.042.12.037.141-.03.129-1.227 1.241-1.846 1.817-.193.18-.33.307-.358.336a8.161 8.161 0 01-.188.186c-.38.366-.664.64.015 1.088.327.216.589.393.85.571.284.194.568.387.936.629.093.06.183.125.27.187.331.236.63.448.997.414.214-.02.435-.22.547-.82.265-1.417.786-4.486.906-5.751.007-.105.003-.21-.013-.315a.337.337 0 00-.114-.217.526.526 0 00-.31-.093c-.3.005-.763.166-2.984 1.09z" fill="#000"/></svg>
